flaticon/delivery/box.svg

<svg xmlns="http://www.w3.org/2000/svg" width="32" height="32" viewBox="0 0 24 24">
    <path d="M 23.601562 0 L 0.398438 0 C 0.160156 0 0 0.160156 0 0.398438 L 0 3.601562 C 0 3.839844 0.160156 4 0.398438 4 L 0.800781 4 L 0.800781 20 L 0.398438 20 C 0.160156 20 0 20.160156 0 20.398438 L 0 23.601562 C 0 23.839844 0.160156 24 0.398438 24 L 23.601562 24 C 23.839844 24 24 23.839844 24 23.601562 L 24 20.398438 C 24 20.160156 23.839844 20 23.601562 20 L 23.199219 20 L 23.199219 4 L 23.601562 4 C 23.839844 4 24 3.839844 24 3.601562 L 24 0.398438 C 24 0.160156 23.839844 0 23.601562 0 Z M 23.199219 0.800781 L 23.199219 1.601562 L 19.601562 1.601562 C 19.359375 1.601562 19.199219 1.761719 19.199219 2 C 19.199219 2.238281 19.359375 2.398438 19.601562 2.398438 L 23.199219 2.398438 L 23.199219 3.199219 L 0.800781 3.199219 L 0.800781 2.398438 L 11.601562 2.398438 C 11.839844 2.398438 12 2.238281 12 2 C 12 1.761719 11.839844 1.601562 11.601562 1.601562 L 0.800781 1.601562 L 0.800781 0.800781 Z M 3.839844 6.800781 L 1.601562 6.800781 L 1.601562 4.558594 Z M 13.039062 16 L 10.960938 16 L 12 14.960938 Z M 5.039062 16 L 1.601562 16 L 1.601562 12.398438 L 8.640625 12.398438 Z M 1.601562 11.601562 L 1.601562 7.601562 L 4.640625 7.601562 L 8.640625 11.601562 Z M 1.601562 16.800781 L 4.238281 16.800781 L 1.601562 19.441406 Z M 5.410156 16.75 C 5.46875 16.714844 5.515625 16.667969 5.546875 16.613281 L 9.601562 12.558594 L 11.441406 14.398438 L 9.789062 16.050781 C 9.730469 16.082031 9.683594 16.128906 9.652344 16.1875 L 5.839844 20 L 2.160156 20 Z M 10.160156 16.800781 L 13.839844 16.800781 L 17.039062 20 L 6.960938 20 Z M 14.347656 16.1875 C 14.316406 16.128906 14.269531 16.082031 14.210938 16.050781 L 9.949219 11.789062 C 9.917969 11.730469 9.871094 11.683594 9.8125 11.652344 L 5.148438 6.988281 C 5.117188 6.929688 5.070312 6.882812 5.011719 6.851562 L 2.160156 4 L 6.238281 4 L 9.578125 7.425781 C 9.605469 7.46875 9.644531 7.507812 9.6875 7.539062 L 14.257812 12.226562 C 14.285156 12.269531 14.324219 12.308594 14.367188 12.335938 L 18.523438 16.601562 C 18.558594 16.664062 18.609375 16.714844 18.671875 16.75 L 21.839844 20 L 18.160156 20 Z M 15.542969 12.398438 L 22.398438 12.398438 L 22.398438 16 L 19.058594 16 Z M 10.859375 7.601562 L 13.441406 7.601562 L 12.132812 8.90625 Z M 15.398438 11.601562 L 19.378906 7.601562 L 22.398438 7.601562 L 22.398438 11.601562 Z M 18.941406 6.882812 C 18.921875 6.898438 18.898438 6.917969 18.882812 6.941406 L 14.484375 11.316406 L 12.6875 9.472656 L 14.613281 7.546875 C 14.667969 7.515625 14.714844 7.46875 14.75 7.410156 L 18.160156 4 L 21.839844 4 Z M 14.238281 6.800781 L 10.078125 6.800781 L 7.34375 4 L 17.039062 4 Z M 19.839844 16.800781 L 22.398438 16.800781 L 22.398438 19.421875 Z M 22.398438 6.800781 L 20.175781 6.800781 L 22.398438 4.5625 Z M 0.800781 23.199219 L 0.800781 22.398438 L 4.398438 22.398438 C 4.640625 22.398438 4.800781 22.238281 4.800781 22 C 4.800781 21.761719 4.640625 21.601562 4.398438 21.601562 L 0.800781 21.601562 L 0.800781 20.800781 L 23.199219 20.800781 L 23.199219 21.601562 L 12.398438 21.601562 C 12.160156 21.601562 12 21.761719 12 22 C 12 22.238281 12.160156 22.398438 12.398438 22.398438 L 23.199219 22.398438 L 23.199219 23.199219 Z M 0.800781 23.199219"/>
    <path d="M19.480469 18.921875L5.480469 4.519531C5.320312 4.359375 5.078125 4.359375 4.921875 4.519531 4.761719 4.679688 4.761719 4.921875 4.921875 5.078125L18.921875 19.480469C19 19.558594 19.078125 19.601562 19.199219 19.601562 19.320312 19.601562 19.398438 19.558594 19.480469 19.480469 19.640625 19.320312 19.640625 19.078125 19.480469 18.921875zM19.480469 4.519531C19.320312 4.359375 19.078125 4.359375 18.921875 4.519531L14.121094 9.359375C13.960938 9.519531 13.960938 9.761719 14.121094 9.921875 14.199219 10 14.28125 10.039062 14.398438 10.039062 14.519531 10.039062 14.601562 10 14.679688 9.921875L19.480469 5.078125C19.640625 4.921875 19.640625 4.679688 19.480469 4.519531zM9.878906 14.121094C9.71875 13.960938 9.480469 13.960938 9.320312 14.121094L4.519531 18.921875C4.359375 19.078125 4.359375 19.320312 4.519531 19.480469 4.601562 19.558594 4.679688 19.601562 4.800781 19.601562 4.921875 19.601562 5 19.558594 5.078125 19.480469L9.878906 14.679688C10.039062 14.519531 10.039062 14.28125 9.878906 14.121094zM9.878906 14.121094"/>
</svg>

<svg xmlns="http://www.w3.org/2000/svg" width="32" height="32" viewBox="0 0 24 24">
    <path d="M23.602 0H.398C.16 0 0 .16 0 .398v3.204C0 3.84.16 4 .398 4h.403v16H.398C.16 20 0 20.16 0 20.398v3.204c0 .238.16.398.398.398h23.204c.238 0 .398-.16.398-.398v-3.204c0-.238-.16-.398-.398-.398h-.403V4h.403c.238 0 .398-.16.398-.398V.398C24 .16 23.84 0 23.602 0zm-.403.8v.802h-3.597c-.243 0-.403.16-.403.398 0 .238.16.398.403.398h3.597V3.2H.801v-.8h10.8c.239 0 .399-.16.399-.399 0-.238-.16-.398-.398-.398H.8V.8zm-19.36 6H1.603V4.56zm9.2 9.2h-2.078L12 14.96zm-8 0H1.602v-3.602H8.64zm-3.437-4.398v-4H4.64l4 4zm0 5.199h2.636l-2.636 2.64zm3.808-.051a.382.382 0 0 0 .137-.137l4.055-4.054 1.84 1.84-1.653 1.652a.33.33 0 0 0-.137.137L5.84 20H2.16zm4.75.05h3.68l3.2 3.2H6.96zm4.188-.613a.33.33 0 0 0-.137-.136l-4.262-4.262a.33.33 0 0 0-.136-.137L5.147 6.988a.33.33 0 0 0-.136-.136L2.16 4h4.078l3.34 3.426a.43.43 0 0 0 .11.113l4.57 4.688a.365.365 0 0 0 .11.109l4.155 4.266a.387.387 0 0 0 .149.148L21.84 20h-3.68zm1.195-3.789h6.855V16h-3.34zm-4.684-4.796h2.582l-1.308 1.304zm4.54 4l3.98-4h3.02v4zm3.542-4.72a.278.278 0 0 0-.058.06l-4.399 4.374-1.796-1.843 1.925-1.926a.382.382 0 0 0 .137-.137L18.16 4h3.68zm-4.703-.081h-4.16L7.344 4h9.695zm5.602 10h2.558v2.62zm2.558-10h-2.222l2.222-2.239zM.801 23.199v-.8h3.597c.243 0 .403-.16.403-.399 0-.238-.16-.398-.403-.398H.801V20.8h22.398v.8H12.4c-.239 0-.399.16-.399.399 0 .238.16.398.398.398H23.2v.801zm0 0"/>
    <path d="M19.48 18.922L5.48 4.52a.385.385 0 0 0-.558 0 .385.385 0 0 0 0 .558l14 14.402a.36.36 0 0 0 .277.122c.121 0 .2-.043.281-.122a.385.385 0 0 0 0-.558zm0 0M19.48 4.52a.385.385 0 0 0-.558 0l-4.8 4.84a.39.39 0 0 0 0 .562c.077.078.16.117.276.117.122 0 .204-.039.282-.117l4.8-4.844a.385.385 0 0 0 0-.558zm0 0M9.879 14.121a.385.385 0 0 0-.559 0l-4.8 4.8a.385.385 0 0 0 0 .56c.082.078.16.12.28.12a.36.36 0 0 0 .278-.12l4.8-4.801a.385.385 0 0 0 0-.559zm0 0"/>
</svg>
